build/system/QRCodeOutline.svg

<svg xmlns="http://www.w3.org/2000/svg" fill="none" viewBox="0 0 24 24" focusable="false"><path d="M0 0H24V24H0z"/><path fill="#74767B" fill-rule="evenodd" d="M5 2L5.79928 2C6.15826 2 6.44928 2.29101 6.44928 2.65C6.44928 3.00899 6.15826 3.3 5.79928 3.3L5 3.3C4.06112 3.3 3.3 4.06112 3.3 5L3.3 5.69097C3.3 6.04996 3.00899 6.34097 2.65 6.34097C2.29101 6.34097 2 6.04996 2 5.69097L2 5C2 3.34315 3.34315 2 5 2ZM22 5.69097C22 6.04996 21.709 6.34097 21.35 6.34097C20.991 6.34097 20.7 6.04996 20.7 5.69097L20.7 5C20.7 4.06112 19.9389 3.3 19 3.3L18.4172 3.3C18.0582 3.3 17.7672 3.00899 17.7672 2.65C17.7672 2.29101 18.0582 2 18.4172 2L19 2C20.6569 2 22 3.34315 22 5L22 5.69097ZM5.92432 7.22435C5.92432 6.50638 6.50635 5.92435 7.22432 5.92435L9.94052 5.92435C10.6585 5.92435 11.2405 6.50638 11.2405 7.22435L11.2405 9.94055C11.2405 10.6585 10.6585 11.2406 9.94052 11.2406L7.22432 11.2406C6.50634 11.2406 5.92432 10.6585 5.92432 9.94055L5.92432 7.22435ZM12.7593 7.22435C12.7593 6.50638 13.3413 5.92435 14.0593 5.92435L16.7755 5.92435C17.4935 5.92435 18.0755 6.50638 18.0755 7.22435L18.0755 9.94055C18.0755 10.6585 17.4935 11.2406 16.7755 11.2406L14.0593 11.2406C13.3413 11.2406 12.7593 10.6585 12.7593 9.94055L12.7593 7.22435ZM9.94052 7.22435L7.22432 7.22435L7.22432 9.94055L9.94052 9.94055L9.94052 7.22435ZM16.7755 7.22435L14.0593 7.22435L14.0593 9.94055L16.7755 9.94055L16.7755 7.22435ZM13.4091 12.7169C13.7681 12.7169 14.0591 13.0079 14.0591 13.3669L14.0591 14.3459C14.0591 14.7049 13.7681 14.9959 13.4091 14.9959C13.0501 14.9959 12.7591 14.7049 12.7591 14.3459L12.7591 13.3669C12.7591 13.0079 13.0501 12.7169 13.4091 12.7169ZM5.92432 14.0595C5.92432 13.3415 6.50635 12.7595 7.22432 12.7595L9.94052 12.7595C10.6585 12.7595 11.2405 13.3415 11.2405 14.0595L11.2405 16.7757C11.2405 17.4936 10.6585 18.0757 9.94052 18.0757L7.22432 18.0757C6.50634 18.0757 5.92432 17.4936 5.92432 16.7757L5.92432 14.0595ZM16.7757 18.2789L14.5764 18.2789C14.2174 18.2789 13.9264 17.9879 13.9264 17.6289C13.9264 17.2699 14.2174 16.9789 14.5764 16.9789L16.7757 16.9789L16.7757 14.6063C16.7757 14.2474 17.0667 13.9563 17.4257 13.9563C17.7847 13.9563 18.0757 14.2474 18.0757 14.6063L18.0757 16.9789C18.0757 17.6969 17.4937 18.2789 16.7757 18.2789ZM9.94052 14.0595L7.22432 14.0595L7.22432 16.7757L9.94052 16.7757L9.94052 14.0595ZM2 18.3089C2 17.9499 2.29101 17.6589 2.65 17.6589C3.00899 17.6589 3.3 17.9499 3.3 18.3089L3.3 19C3.3 19.9389 4.06112 20.7 5 20.7L5.79928 20.7C6.15826 20.7 6.44928 20.991 6.44928 21.35C6.44927 21.709 6.15826 22 5.79928 22L5 22C3.34315 22 2 20.6569 2 19L2 18.3089ZM20.7 18.3089C20.7 17.9499 20.991 17.6589 21.35 17.6589C21.709 17.6589 22 17.9499 22 18.3089L22 19C22 20.6569 20.6569 22 19 22L18.4172 22C18.0582 22 17.7672 21.709 17.7672 21.35C17.7672 20.991 18.0582 20.7 18.4172 20.7L19 20.7C19.9389 20.7 20.7 19.9389 20.7 19L20.7 18.3089Z"/></svg>

<svg xmlns="http://www.w3.org/2000/svg" fill="none" viewBox="0 0 24 24" focusable="false"><path fill="#74767B" fill-rule="evenodd" d="M5 2h.79c.36 0 .65.29.65.65 0 .35-.29.64-.65.64H5c-.94 0-1.71.77-1.71 1.71v.69c0 .35-.29.65-.65.65-.35 0-.64-.3-.64-.65V5c0-1.66 1.34-3 3-3m17 3.69c0 .35-.3.65-.65.65-.36 0-.65-.3-.65-.65V5c0-.94-.77-1.71-1.7-1.71h-.59c-.36 0-.65-.29-.65-.64 0-.36.29-.65.65-.65H19c1.65 0 3 1.34 3 3zM5.92 7.22c0-.72.58-1.3 1.3-1.3h2.72c.71 0 1.3.58 1.3 1.3v2.72c0 .71-.59 1.3-1.3 1.3H7.22c-.72 0-1.3-.59-1.3-1.3zm6.83 0c0-.72.59-1.3 1.3-1.3h2.72c.72 0 1.3.58 1.3 1.3v2.72c0 .71-.58 1.3-1.3 1.3h-2.72c-.71 0-1.3-.59-1.3-1.3zm-2.81 0H7.22v2.72h2.72zm6.83 0h-2.72v2.72h2.72zm-3.37 5.49c.36 0 .65.29.65.65v.98c0 .36-.29.65-.65.65-.35 0-.65-.29-.65-.65v-.98c0-.36.3-.65.65-.65m-7.48 1.34c0-.71.58-1.3 1.3-1.3h2.72c.71 0 1.3.59 1.3 1.3v2.72c0 .72-.59 1.3-1.3 1.3H7.22c-.72 0-1.3-.58-1.3-1.3zm10.85 4.22h-2.2c-.36 0-.65-.29-.65-.65s.29-.65.65-.65h2.2V14.6c0-.36.29-.65.65-.65s.65.29.65.65v2.37c0 .72-.58 1.3-1.3 1.3m-6.83-4.22H7.22v2.72h2.72zM2 18.3c0-.36.29-.65.64-.65.36 0 .65.29.65.65v.7c0 .93.77 1.7 1.71 1.7h.79c.36 0 .65.29.65.65 0 .35-.29.65-.65.65H5c-1.66 0-3-1.35-3-3zm18.7 0c0-.36.29-.65.65-.65.35 0 .65.29.65.65v.7c0 1.65-1.35 3-3 3h-.59c-.36 0-.65-.3-.65-.65 0-.36.29-.65.65-.65H19c.93 0 1.7-.77 1.7-1.7z"/></svg>
